assets/images/svgs/instagram.svg

<svg width="24" height="24" viewBox="0 0 24 24" fill="none" xmlns="http://www.w3.org/2000/svg">
<path fill-rule="evenodd" clip-rule="evenodd" d="M16 3H8C5.23858 3 3 5.23858 3 8V16C3 18.7614 5.23858 21 8 21H16C18.7614 21 21 18.7614 21 16V8C21 5.23858 18.7614 3 16 3ZM19.25 16C19.2445 17.7926 17.7926 19.2445 16 19.25H8C6.20735 19.2445 4.75549 17.7926 4.75 16V8C4.75549 6.20735 6.20735 4.75549 8 4.75H16C17.7926 4.75549 19.2445 6.20735 19.25 8V16ZM16.75 8.25C17.3023 8.25 17.75 7.80228 17.75 7.25C17.75 6.69772 17.3023 6.25 16.75 6.25C16.1977 6.25 15.75 6.69772 15.75 7.25C15.75 7.80228 16.1977 8.25 16.75 8.25ZM12 7.5C9.51472 7.5 7.5 9.51472 7.5 12C7.5 14.4853 9.51472 16.5 12 16.5C14.4853 16.5 16.5 14.4853 16.5 12C16.5027 10.8057 16.0294 9.65957 15.1849 8.81508C14.3404 7.97059 13.1943 7.49734 12 7.5ZM9.25 12C9.25 13.5188 10.4812 14.75 12 14.75C13.5188 14.75 14.75 13.5188 14.75 12C14.75 10.4812 13.5188 9.25 12 9.25C10.4812 9.25 9.25 10.4812 9.25 12Z" fill="url(#paint0_linear_4_3616)"/>
<defs>
<linearGradient id="paint0_linear_4_3616" x1="3" y1="12" x2="21" y2="12" gradientUnits="userSpaceOnUse">
<stop stop-color="#17E3A6"/>
<stop offset="1" stop-color="#FF669F"/>
</linearGradient>
</defs>
</svg>

<svg xmlns="http://www.w3.org/2000/svg" width="24" height="24" fill="none" xmlns:v="https://vecta.io/nano"><path fill-rule="evenodd" d="M16 3H8a5 5 0 0 0-5 5v8a5 5 0 0 0 5 5h8a5 5 0 0 0 5-5V8a5 5 0 0 0-5-5zm3.25 13A3.26 3.26 0 0 1 16 19.25H8A3.26 3.26 0 0 1 4.75 16V8A3.26 3.26 0 0 1 8 4.75h8A3.26 3.26 0 0 1 19.25 8v8zm-2.5-7.75a1 1 0 1 0 0-2 1 1 0 1 0 0 2zM12 7.5a4.5 4.5 0 1 0 0 9 4.5 4.5 0 0 0 4.5-4.5A4.49 4.49 0 0 0 12 7.5zM9.25 12a2.75 2.75 0 1 0 5.5 0 2.75 2.75 0 1 0-5.5 0z" fill="url(#A)"/><defs><linearGradient id="A" x1="3" y1="12" x2="21" y2="12" gradientUnits="userSpaceOnUse"><stop stop-color="#17e3a6"/><stop offset="1" stop-color="#ff669f"/></linearGradient></defs></svg>
